X: 3
T: The Baltimore Salute
R: reel
M: 4/4
L: 1/8
K: Gmaj
|:B2 ge dBGA|~B3 G AEGE|D~G3 GABd|egdB ABGA||B2 ge dBGA|BdBG A~E3|DGBG DGBe|dBAB G2 GA:|||:B~G3 D~G3|gdeg d~B3|gd (3efg dGBd|eaag a2 ga||bgab agef|~g3 e dBAB|~G3 E DGBe|dBAB G2 GA:||


Tune 1849	Setting 15282

